file/novartis.svg

<svg clip-rule="evenodd" fill-rule="evenodd" stroke-linejoin="round" stroke-miterlimit="1.41421" viewBox="0 0 560 400" xmlns="http://www.w3.org/2000/svg" xmlns:xlink="http://www.w3.org/1999/xlink"><linearGradient id="a" gradientUnits="userSpaceOnUse" x1="56.72" x2="99.51" y1="64.98" y2="64.98"><stop offset="0" stop-color="#e74a21"/><stop offset=".3" stop-color="#e74a21"/><stop offset=".7" stop-color="#ec9a1e"/><stop offset="1" stop-color="#ec9a1e"/></linearGradient><g fill-rule="nonzero" transform="matrix(1.69262 0 0 1.69262 -66.0223064 94.0339824)"><path d="m86.27 60.09-.12.31c2 .88 6.49 4.37 6.49 11.4 0 6.62-5.58 13.29-14.35 13.29-10.91 0-14.67-6.38-14.67-12.24 0-7.51 5.25-12.51 5.25-19.35-.059-4.964-3.568-9.266-8.42-10.32l-.18.31c1.732 1.68 2.704 3.997 2.69 6.41 0 7.39-6.23 12.64-6.23 21.12 0 7.81 5.46 15.77 21.27 15.77 14.09 0 21.52-6.9 21.52-14.24-.01-6.3-4.52-11.63-13.25-12.46z" fill="url(#a)"/><path d="m148.17 85.53-18.73-24.15v21.77l3.82.91v1h-8.71v-1l3.12-.91v-23.72c-.759-.708-1.674-1.228-2.67-1.52-.38-.08-.89-.17-.89-.17v-1h7.39l16 20.8v-18.87l-3.82-.92v-1h8.71v1l-3.12.92v21.59c0 2 .14 4.91.17 5.28zm39.16-15.38c0 10-7 15.8-14.65 15.8s-14.68-5.88-14.68-15.02 7-15.08 14.61-15.08c.157-.005.313-.008.47-.008 7.817 0 14.25 6.433 14.25 14.25v.068zm-4.87 1.5c0-7.35-4.4-14.48-10.38-14.48-6.36 0-9.23 6.15-9.23 12.73s3.63 14.74 10.46 14.74c6.42 0 9.15-6.5 9.15-12.99zm10.92-13-3-.92v-1h11.49v1l-3.6.92 7.93 21.62 7.93-21.62-3.6-.92v-1h8.5v1l-3 .92-9.93 26.95h-2.54zm67.9 11.95h-1.82v-12.38c6 0 9.57 1.38 9.57 6.28-.03 3.64-3.15 6.1-7.75 6.1zm51.41 13.46 4-.91v-24.49l-4-.92v-1h12.47v1l-4 .92v24.49l4 .91v1h-12.47zm20.11-6.78h.79l2.65 6.1c1.575.791 3.307 1.222 5.07 1.26 3.44 0 6.58-2 6.58-5.58 0-2.72-1.76-4.34-4.61-5.83l-2.82-1.46c-3.37-1.75-6.74-4.23-6.74-8.22 0-4.34 3-7.69 9.42-7.69 2.256.023 4.495.39 6.64 1.09l.67 6.56h-.85l-2.45-5.26c-1.268-.708-2.697-1.08-4.15-1.08-3.25 0-5.46 2-5.46 4.77 0 2.51 1.67 4.09 4.53 5.57l3.34 1.74c4.56 2.36 6.72 4.55 6.72 8.6 0 5-4.69 8.11-10.52 8.11-2.745.042-5.478-.367-8.09-1.21zm-115.6 6.78 3.21-.91 9.91-26.43 3.31-.85 10.23 27.27 3.21.92v1h-12.14v-1l4.11-.92-2.9-7.84h-10.9l-2.88 7.84 4.11.91v1h-9.27zm8.8-10.85h9.43l-4.68-12.64zm41-2c1-.25 6.61-1.68 6.61-7 0-4.27-3.27-7.58-11.33-7.58-5 0-10 .11-10.63.13v1l3.29.92v24.46l-3.29.92v1h11.64v-1l-3.82-.92v-11.06h3.29l8.41 13h7.45v-1l-3.77-1zm24.58-13v24.94l-4 .91v1h12.47v-1l-4-.91v-24.93h6.73l2.22 4.78h.86l-.64-6.23h-22.81l-.64 6.23h.86l2.2-4.73zm-213.39 18 4-37.79h-8.3l4 37.79z" fill="#0460a9"/></g></svg>

<?xml version="1.0" encoding="UTF-8" standalone="no"?>
<!DOCTYPE svg PUBLIC "-//W3C//DTD SVG 1.1//EN" "http://www.w3.org/Graphics/SVG/1.1/DTD/svg11.dtd">
<svg width="100%" height="100%" viewBox="0 0 560 400" version="1.1" xmlns="http://www.w3.org/2000/svg" xmlns:xlink="http://www.w3.org/1999/xlink" xml:space="preserve" xmlns:serif="http://www.serif.com/" style="fill-rule:evenodd;clip-rule:evenodd;stroke-linejoin:round;stroke-miterlimit:1.41421;">
    <g transform="matrix(1.69262,0,0,1.69262,29.9831,159.166)">
        <g id="_Path_" transform="matrix(1,0,0,1,-56.72,-38.48)">
            <path d="M86.27,60.09L86.15,60.4C88.15,61.28 92.64,64.77 92.64,71.8C92.64,78.42 87.06,85.09 78.29,85.09C67.38,85.09 63.62,78.71 63.62,72.85C63.62,65.34 68.87,60.34 68.87,53.5C68.811,48.536 65.302,44.234 60.45,43.18L60.27,43.49C62.002,45.17 62.974,47.487 62.96,49.9C62.96,57.29 56.73,62.54 56.73,71.02C56.73,78.83 62.19,86.79 78,86.79C92.09,86.79 99.52,79.89 99.52,72.55C99.51,66.25 95,60.92 86.27,60.09Z" style="fill:url(#_Linear1);fill-rule:nonzero;"/>
        </g>
        <g id="_Compound_Path_" transform="matrix(1,0,0,1,-56.72,-38.48)">
            <path d="M148.17,85.53L129.44,61.38L129.44,83.15L133.26,84.06L133.26,85.06L124.55,85.06L124.55,84.06L127.67,83.15L127.67,59.43C126.911,58.722 125.996,58.202 125,57.91C124.62,57.83 124.11,57.74 124.11,57.74L124.11,56.74L131.5,56.74L147.5,77.54L147.5,58.67L143.68,57.75L143.68,56.75L152.39,56.75L152.39,57.75L149.27,58.67L149.27,80.26C149.27,82.26 149.41,85.17 149.44,85.54L148.17,85.53ZM187.33,70.15C187.33,80.15 180.33,85.95 172.68,85.95C165.03,85.95 158,80.07 158,70.93C158,61.79 165,55.85 172.61,55.85C172.767,55.845 172.923,55.842 173.08,55.842C180.897,55.842 187.33,62.275 187.33,70.092C187.33,70.115 187.33,70.137 187.33,70.16L187.33,70.15ZM182.46,71.65C182.46,64.3 178.06,57.17 172.08,57.17C165.72,57.17 162.85,63.32 162.85,69.9C162.85,76.48 166.48,84.64 173.31,84.64C179.73,84.64 182.46,78.14 182.46,71.65ZM193.38,58.65L190.38,57.73L190.38,56.73L201.87,56.73L201.87,57.73L198.27,58.65L206.2,80.27L214.13,58.65L210.53,57.73L210.53,56.73L219.03,56.73L219.03,57.73L216.03,58.65L206.1,85.6L203.56,85.6L193.38,58.65ZM261.28,70.6L259.46,70.6L259.46,58.22C265.46,58.22 269.03,59.6 269.03,64.5C269,68.14 265.88,70.6 261.28,70.6ZM312.69,84.06L316.69,83.15L316.69,58.66L312.69,57.74L312.69,56.74L325.16,56.74L325.16,57.74L321.16,58.66L321.16,83.15L325.16,84.06L325.16,85.06L312.69,85.06L312.69,84.06ZM332.8,77.28L333.59,77.28L336.24,83.38C337.815,84.171 339.547,84.602 341.31,84.64C344.75,84.64 347.89,82.64 347.89,79.06C347.89,76.34 346.13,74.72 343.28,73.23L340.46,71.77C337.09,70.02 333.72,67.54 333.72,63.55C333.72,59.21 336.72,55.86 343.14,55.86C345.396,55.883 347.635,56.25 349.78,56.95L350.45,63.51L349.6,63.51L347.15,58.25C345.882,57.542 344.453,57.17 343,57.17C339.75,57.17 337.54,59.17 337.54,61.94C337.54,64.45 339.21,66.03 342.07,67.51L345.41,69.25C349.97,71.61 352.13,73.8 352.13,77.85C352.13,82.85 347.44,85.96 341.61,85.96C338.865,86.002 336.132,85.593 333.52,84.75L332.8,77.28ZM217.2,84.06L220.41,83.15L230.32,56.72L233.63,55.87L243.86,83.14L247.07,84.06L247.07,85.06L234.93,85.06L234.93,84.06L239.04,83.14L236.14,75.3L225.24,75.3L222.36,83.14L226.47,84.05L226.47,85.05L217.2,85.05L217.2,84.06ZM226,73.21L235.43,73.21L230.75,60.57L226,73.21ZM267,71.21C268,70.96 273.61,69.53 273.61,64.21C273.61,59.94 270.34,56.63 262.28,56.63C257.28,56.63 252.28,56.74 251.65,56.76L251.65,57.76L254.94,58.68L254.94,83.14L251.65,84.06L251.65,85.06L263.29,85.06L263.29,84.06L259.47,83.14L259.47,72.08L262.76,72.08L271.17,85.08L278.62,85.08L278.62,84.08L274.85,83.08L267,71.21ZM291.58,58.21L291.58,83.15L287.58,84.06L287.58,85.06L300.05,85.06L300.05,84.06L296.05,83.15L296.05,58.22L302.78,58.22L305,63L305.86,63L305.22,56.77L282.41,56.77L281.77,63L282.63,63L284.83,58.27L291.58,58.21ZM78.19,76.21L82.19,38.42L73.89,38.42L77.89,76.21L78.19,76.21Z" style="fill:rgb(4,96,169);fill-rule:nonzero;"/>
        </g>
    </g>
    <defs>
        <linearGradient id="_Linear1" x1="0" y1="0" x2="1" y2="0" gradientUnits="userSpaceOnUse" gradientTransform="matrix(42.79,0,0,42.79,56.72,64.98)"><stop offset="0" style="stop-color:rgb(231,74,33);stop-opacity:1"/><stop offset="0.3" style="stop-color:rgb(231,74,33);stop-opacity:1"/><stop offset="0.7" style="stop-color:rgb(236,154,30);stop-opacity:1"/><stop offset="1" style="stop-color:rgb(236,154,30);stop-opacity:1"/></linearGradient>
    </defs>
</svg>
